X:1
T:Title
%%score { ( 1 4 ) | ( 2 3 ) }
L:1/8
Q:1/4=117
M:6/8
K:D
V:1 treble nm="Grand Piano"
V:4 treble 
V:2 bass 
V:3 bass 
V:1
 F2 F =F2 ^F | B2 A F2 D | .[A,EG]3 .[A,CG]3 | [A,G]6 | [EG]2 [EG] [^DF]2 [EG] | %5
w: C.~Harold~Lowden * * *|||||
 [Ac]2 [GB] [FA]2 [EG] | F3 B3 | A6 | [FA]2 [FA] [=F^G]2 [^FA] | [Fd]2 [FA] [=F^G]2 [^FA] | %10
w: |||||
 [GB]3 [GB]3 | [AB]6 | [^GB]2 [GB] [=G^A]2 [^GB] | [^Ge]2 [GB] [=G^A]2 [^GB] | c3 d3 | e6 | d6- | %17
w: |||||||
 d2 z z3 | B6 | A6 | A6- | A2 z z3 | F6- | F6 | F2 F E2 F | A3 G3 | ^G2 G F2 G | B3 [CEA]3 | %28
w: |||||||||||
 [DAd]2 [DAd] [Ae]2 [DAd] | [DAc]2 [DGB] [=CFA]2 [B,EG] | [DF]3[K:bass] [G,CE]3 | [F,D]6 |] %32
w: ||||
V:2
 [D,A,D]2 [D,A,D] [D,^G,D]2 [D,A,D] | [D,G,D]2 [D,F,D] [D,A,D]2 [D,F,] | z2 D z2 B, | A,,6 | %4
 [A,,A,]2 [A,,A,] [A,,A,]2 [A,,A,] | [A,,A,]2 [A,,A,] [B,,A,]2 [C,A,] | [D,A,D]3 [D,G,D]3 | %7
 [D,F,D]6 | [D,D]2 [D,D] [D,D]2 [D,D] | [D,A,]2 [D,D] [D,D]2 [D,D] | [G,D]3 [G,D]3 | [F,^D]6 | %12
 [E,E]2 [E,E] [E,E]2 [E,E] | [E,B,]2 [E,E] [E,E]2 [E,E] | [A,EA]3 [A,B,^G]3 | [A,CG]6 | %16
 [D,D]2 [D,A,] [D,A,]2 [D,A,] | [D,A,]2 [D,A,D] [D,A,]2 [D,D] | [E,C]2 [E,C] [E,C]2 [E,C] | %19
 [A,CG]6 | [A,CG]2 [A,C] [A,C]2 [A,C] | [A,C]2 [A,G] [A,B,G]2[K:bass] [A,CE] | %22
 [D,D]2 [D,C] [D,B,]2 [D,^A,] | [D,A,]6 | [D,A,=C]2 [D,A,C] [D,A,C]2 [D,A,C] | [G,=CD]3 [G,B,D]3 | %26
 [E,B,D]2 [E,B,D] [E,B,D]2 [E,B,D] | [A,DE]3 A,2 G, | F,2 F, [F,D]2 F, | G,2 G, ^D,2 E, | %30
 A,3 A,,3 | D,6 |] %32
V:3
 x6 | x6 | A,,3 A,,3 | x6 | x6 | x6 | x6 | x6 | x6 | x6 | x6 | x6 | x6 | x6 | x6 | x6 | x6 | x6 | %18
 x6 | x6 | x6 | x5[K:bass] x | x6 | x6 | x6 | x6 | x6 | x6 | x6 | x6 | x6 | x6 |] %32
V:4
 x6 | x6 | x6 | x6 | x6 | x6 | x6 | x6 | x6 | x6 | x6 | x6 | x6 | x6 | x6 | x6 | F2 F F2 F | %17
 F2 F [Fc]2 [FB] | G2 G G2 G | x6 | z2 G G2 G | G2 c B2 G | z2 D D2 D | D6 | x6 | x6 | x6 | x6 | %28
 x6 | x6 | x3[K:bass] x3 | x6 |] %32

